X:1
T:Kyrie
T:Kyrie
T:Giovanni Battista Casali
C:Giovanni Battista Casali
%%score [ 1 2 3 4 ]
L:1/8
Q:1/4=120
M:4/4
K:G
V:1 treble nm="S."
V:2 treble nm="A."
V:3 treble-8 nm="T."
V:4 bass nm="B."
V:1
"^\n" B3 B B4 | d3 d BABG | A2 d2 d2 D2 | D2 d4 c2- | c2 B2 A3 A | B2 d2 ^c2 d2- | d2 ^c2 d4 | %7
w: Ky- ri- e,|ky- ri- e _ _ _|_ e- le- i-|son, e- *|* * le- i-|son, e- le- *|* i- son.|
 z4 d3 d | BABG A2 d2- | d2 c2 B2 c2- | c2 B2 A4- | A2 A2 B4 || z4 d4 | d2 ^c2 d3 =c | BAGB A4 | %15
w: Ky- ri-|e _ _ _ _ e-||* * le-|* i- son.|Chri-|ste e- le- *|* * * * i-|
 G2 z2 d4 | d2 c2 BcdB | c4 B2 d2- | d2 c4 B2- | B2 A2 G2 B2- | B2 A4 B2 | A6 A2 | B8 || G4 A4 | %24
w: son. Chri-|ste e- le- * * *|i- son, e-|* * le-|* i- son, e-||le- i-|son.|Ky- ri-|
 B2 d2 c3 c | B4 z4 | z8 | z6 d2- | d2 ^c2 d2 B2 | A2 d4 ^c2 | d2 A2 B2 d2 | c3 c B2 B2 | %32
w: e e- le- i-|son.||Ky-|* ri- e e-|le- * i-|son, e- * *|le- i- son, e-|
 A3 A G2 d2- | d2 B2 A4- | A2 d2 c2 d2 | G2 d4 c2- | c2 B2 A4- | A2 A2 !fermata!B4 |] %38
w: le- i- son. Ky-|* ri- e|_ e- le- i-|son, e- *|* * le-|* i- son.|
V:2
 G3 G G4 | z4 G3 G | FEFD G3 B | AGAF G2 E2 | A2 G4 F2 | G2 G4 F2 | E3 E F2 F2 | G4 D2 z2 | %8
w: Ky- ri- e,|ky- ri-|e _ _ _ _ _|_ _ _ _ _ e-|le- * i-|son, e- *|le- i- son, e-|lei- son.|
 G3 G FEFD | G2 A2 D2 G2 | F2 G4 FE | F2 F2 G4 || G4 G2 F2 | E3 E D2 F2 | G3 G D2 z2 | G4 G2 F2 | %16
w: Ky- ri- e _ _ _|_ e- * *|le- * * *|* i- son.|Chri- ste e-|le- i- son, e-|le- i- son.|Chri- ste e-|
 GFGA D2 G2- | G2 F2 G2 G2- | G2 A4 G2- | G2 FE D2 G2- | G2 A2 F2 G2- | G2 FE F2 F2 | G8 || %23
w: le- * * * * *|* i- son, e-|* * le-|* i- * son, e-|* * * le-|* * * * i-|son.|
 z2 G4 F2 | G2 B2 A3 A | D2 G4 F2 | G2 G4 F2 | E3 E D2 A2 | G3 G F2 z2 | z6 G2- | G2 F2 G2 B2 | %31
w: Ky- ri-|e e- le- i-|son. Ky- ri-|e e- *|le- i- son, e-|le- i- son.|Ky-|* ri- e e-|
 A3 A D2 D2 | E2 F2 G4 | z2 G4 FE | F2 G2 E2 D2 | D3 G E2 G2 | F2 G4 FE | F2 F2 G4 |] %38
w: le- i- son, e-|le- i- son.|Ky- * *|* ri- e e-|le- * * i-|son, e- le- *|* i- son.|
V:3
 d3 d d4 | z8 | d3 d BABG | d2 A2 B2 c2 | d3 B c3 c | d4 z4 | z4 d3 d | BABG A2 d2 | d4 d2 d2 | %9
w: Ky- ri- e,||ky- ri- e _ _ _|_ e- * *|le- * * i-|son.|Ky- ri-|e _ _ _ _ e-|lei- son, e-|
 B2 A2 G2 G2 | A2 Bc d4- | d2 d2 d4 || z8 | z8 | z4 d4 | d2 ^c2 d3 =c | B2 e2 dcBd | c4 d2 d2 | %18
w: le- i- son, e-|le- * * *|* i- son.|||Chri-|ste e- le- *||i- son, e-|
 e4 d4 | c2 c2 B4 | e4 dcBc | d6 d2 | d8 || z8 | G4 A4 | B2 d2 c3 c | B2 B2 ^c2 d2- | d2 ^c2 f4 | %28
w: le- *|* i- son,|e- le- * * *|* i-|son.||Ky- ri-|e e- le- i-|son, e- * *||
 e3 e A2 d2 | ^c2 d2 G3 G | A4 z4 | z4 G4 | A4 B4 | z6 d2- | d2 B2 A4 | B4 G4 | A2 Bc d4- | %37
w: le- i- son, e-|* * le- i-|son.|Ky-|ri- e,|Ky-|* ri- e|e- *|le- * * *|
 d2 d2 d4 |] %38
w: * i- son.|
V:4
 G,3 G, G,4 | z8 | z4 G,3 G, | F,E,F,D, G,2 A,2 | F,2 G,2 A,3 A, | G,2 B,2 A,2 D,2 | %6
w: Ky- ri- e,||ky- ri-|e _ _ _ _ e-|* * le- i-|son, e- * *|
 A,3 A, D,2 z2 | G,3 G, F,E,F,D, | G,2 G,2 D,4 | E,2 F,2 G,2 E,2 | D,2 G,2 D,4- | D,2 D,2 G,,4 || %12
w: le- i- son.|Ky- ri- e _ _ _|_ e- le-|* i- son, e-|* * le-|* i- son.|
 z8 | z8 | G,4 G,2 F,2 | E,3 E, D,2 D,2 | E,D,E,F, G,2 B,2 | A,4 G,2 B,2 | C2 A,2 F,2 G,2 | %19
w: ||Chri- ste e-|le- i- on, e-|le- * * * * *|i- son, e-|le- * * *|
 E,2 F,2 G,4 | C,4 D,2 G,2 | D,6 D,2 | G,,8 || z8 | z2 G,4 F,2 | G,2 B,2 A,3 A, | G,4 z4 | z4 D,4 | %28
w: * i- son,|e- le- *|* i-|son.||Ky- ri-|e e- le- i-|son.|Ky-|
 E,4 F,2 G,2- | G,2 F,2 E,3 E, | D,4 z2 G,2- | G,2 F,2 G,2 E,2 | C,2 D,2 G,,4 | z8 | z2 G,4 F,2 | %35
w: ri- e e-|* * le- i-|son. Ky-|* ri- e e-|le- i- son.||Ky- ri-|
 G,2 B,,2 C,2 E,2 | D,2 G,2 D,4- | D,2 D,2 G,,4 |] %38
w: e e- * *|* * le-|* i- son.|

